assets/anaconda.svg

<?xml version="1.0" encoding="UTF-8"?>
<svg width="209px" height="36px" viewBox="0 0 209 36" version="1.1" xmlns="http://www.w3.org/2000/svg" xmlns:xlink="http://www.w3.org/1999/xlink">
    <!-- Generator: Sketch 46.2 (44496) - http://www.bohemiancoding.com/sketch -->
    <title>logo-horizontal-large-white</title>
    <desc>Created with Sketch.</desc>
    <defs></defs>
    <g id="Page-1" stroke="none" stroke-width="1" fill="none" fill-rule="evenodd">
        <g id="logo-horizontal-large-white">
            <path d="M53.8,7.95 C53.7,7.75 53.6,7.65 53.3,7.65 L53,7.65 C52.7,7.65 52.6,7.75 52.5,7.95 L43.6,27.25 C43.4,27.65 43.7,27.95 44.1,27.95 L46.6,27.95 C47.1,27.95 47.3,27.65 47.4,27.35 L48.8,24.25 L57.4,24.25 L58.8,27.35 C59,27.75 59.2,27.95 59.6,27.95 L62.1,27.95 C62.5,27.95 62.8,27.55 62.6,27.25 L53.8,7.95 Z M50.2,21.15 L53,14.85 L53.1,14.85 L56,21.15 L50.2,21.15 L50.2,21.15 Z M81.1,7.95 L78.5,7.95 C78.2,7.95 78,8.25 78,8.45 L78,20.35 L66,7.65 L65.3,7.65 C65,7.65 64.8,7.85 64.8,8.15 L64.8,27.45 C64.8,27.75 65.1,27.95 65.3,27.95 L67.9,27.95 C68.2,27.95 68.4,27.65 68.4,27.45 L68.4,15.15 L80.4,28.35 L81.1,28.35 C81.4,28.35 81.6,28.15 81.6,27.85 L81.6,8.45 C81.7,8.25 81.4,7.95 81.1,7.95 Z M94,7.95 C93.9,7.75 93.8,7.65 93.5,7.65 L93.2,7.65 C92.9,7.65 92.8,7.75 92.7,7.95 L83.8,27.25 C83.6,27.65 83.9,27.95 84.3,27.95 L86.8,27.95 C87.3,27.95 87.5,27.65 87.6,27.35 L89,24.35 L97.6,24.35 L99,27.45 C99.2,27.85 99.4,28.05 99.8,28.05 L102.3,28.05 C102.7,28.05 103,27.65 102.8,27.35 L94,7.95 Z M90.4,21.15 L93.2,14.85 L93.3,14.85 L96.2,21.15 L90.4,21.15 L90.4,21.15 Z M118.5,22.95 C118.3,22.75 118,22.75 117.8,22.95 C116.6,23.95 115.1,24.55 113.4,24.55 C109.7,24.55 107,21.55 107,17.95 C107,14.35 109.7,11.25 113.4,11.25 C115,11.25 116.6,11.85 117.8,12.95 C118,13.15 118.3,13.15 118.5,12.95 L120.2,11.15 C120.4,10.95 120.4,10.55 120.2,10.35 C118.3,8.65 116.2,7.65 113.3,7.65 C107.6,7.65 103,12.25 103,17.95 C103,23.65 107.6,28.25 113.3,28.25 C115.9,28.25 118.3,27.35 120.3,25.45 C120.5,25.25 120.6,24.85 120.3,24.65 L118.5,22.95 L118.5,22.95 Z M132,7.65 C126.3,7.65 121.7,12.25 121.7,17.95 C121.7,23.65 126.3,28.25 132,28.25 C137.7,28.25 142.3,23.65 142.3,17.95 C142.3,12.25 137.8,7.65 132,7.65 Z M132,24.55 C128.4,24.55 125.4,21.55 125.4,17.95 C125.4,14.35 128.4,11.35 132,11.35 C135.6,11.35 138.6,14.35 138.6,17.95 C138.6,21.65 135.6,24.55 132,24.55 Z M161.9,7.95 L159.3,7.95 C159,7.95 158.8,8.25 158.8,8.45 L158.8,20.35 L146.7,7.65 L146,7.65 C145.7,7.65 145.5,7.85 145.5,8.15 L145.5,27.45 C145.5,27.75 145.8,27.95 146,27.95 L148.6,27.95 C148.9,27.95 149.1,27.65 149.1,27.45 L149.1,15.15 L161.1,28.35 L161.8,28.35 C162.1,28.35 162.3,28.15 162.3,27.85 L162.3,8.45 C162.4,8.25 162.2,7.95 161.9,7.95 L161.9,7.95 Z M173.4,7.95 L166.6,7.95 C166.3,7.95 166.1,8.25 166.1,8.45 L166.1,27.45 C166.1,27.75 166.3,27.95 166.6,27.95 L173.4,27.95 C178.9,27.95 183.5,23.45 183.5,17.85 C183.4,12.45 178.9,7.95 173.4,7.95 Z M173,24.55 L169.7,24.55 L169.7,11.45 L173,11.45 C176.7,11.45 179.4,14.25 179.4,17.95 C179.5,21.75 176.7,24.55 173,24.55 L173,24.55 Z M202.6,27.25 L193.8,7.95 C193.7,7.75 193.6,7.65 193.3,7.65 L193,7.65 C192.7,7.65 192.6,7.75 192.5,7.95 L183.6,27.25 C183.4,27.65 183.7,27.95 184.1,27.95 L186.6,27.95 C187.1,27.95 187.3,27.65 187.4,27.35 L188.8,24.25 L197.4,24.25 L198.8,27.35 C199,27.75 199.2,27.95 199.6,27.95 L202.1,27.95 C202.5,28.05 202.8,27.65 202.6,27.25 Z M190.2,21.15 L193,14.85 L193.1,14.85 L196,21.15 L190.2,21.15 L190.2,21.15 Z" id="Shape" fill="#B1B1B1" fill-rule="nonzero"></path>
            <path d="M206.9,25 C206.9,24.9 206.8,24.8 206.7,24.8 L206.3,24.8 L206.3,25.3 L206.7,25.3 C206.8,25.2 206.9,25.1 206.9,25 Z" id="Shape"></path>
            <path d="M206.5,26.6 C207.3,26.6 207.9,26 207.9,25.2 C207.9,24.4 207.3,23.8 206.5,23.8 C205.7,23.8 205.1,24.4 205.1,25.2 C205.1,26 205.8,26.6 206.5,26.6 Z M205.9,24.5 C205.9,24.5 205.9,24.4 205.9,24.5 L206.7,24.4 C207,24.4 207.3,24.6 207.3,25 C207.3,25.3 207.1,25.5 206.9,25.5 C207,25.7 207.1,25.9 207.1,26 C207.1,26.1 207.1,26.1 207,26.1 L206.8,26.1 C206.8,26.1 206.7,26.1 206.7,26 L206.5,25.4 L206.2,25.4 L206.2,26 C206.2,26 206.2,26.1 206.1,26.1 L206,26.1 C205.9,26.1 205.9,26.1 205.9,26 L205.9,24.5 L205.9,24.5 Z" id="Shape"></path>
            <path d="M206,26.1 L206.2,26.1 C206.3,26.1 206.3,26.1 206.3,26 L206.3,25.5 L206.6,25.5 L206.8,26.1 C206.8,26.1 206.8,26.2 206.9,26.2 L207.1,26.2 C207.2,26.2 207.2,26.1 207.2,26.1 C207.1,25.9 207,25.8 207,25.6 C207.1,25.5 207.4,25.4 207.4,25.1 C207.4,24.7 207.1,24.5 206.8,24.5 L206,24.5 C205.9,24.5 205.9,24.5 205.9,24.6 L206,26.1 C205.9,26.1 205.9,26.1 206,26.1 L206,26.1 Z M206.2,24.7 L206.6,24.7 C206.7,24.7 206.8,24.8 206.8,24.9 C206.8,25 206.7,25.1 206.6,25.1 L206.2,25.1 L206.2,24.7 Z" id="Shape" fill="#3FAE2A" fill-rule="nonzero"></path>
            <path d="M206.5,27 C207.4,27 208.2,26.2 208.2,25.3 C208.2,24.4 207.4,23.6 206.5,23.6 C205.6,23.6 204.8,24.4 204.8,25.3 C204.8,26.2 205.6,27 206.5,27 Z M206.5,23.9 C207.3,23.9 207.9,24.5 207.9,25.3 C207.9,26.1 207.3,26.7 206.5,26.7 C205.7,26.7 205.1,26.1 205.1,25.3 C205.1,24.5 205.8,23.9 206.5,23.9 Z" id="Shape" fill="#3FAE2A" fill-rule="nonzero"></path>
            <g id="Group" fill-rule="nonzero" fill="#B1B1B1">
                <path d="M6.3,26.8 C6.3,25.8 6.4,24.9 6.5,24 C5.6,23.6 4.8,23.2 3.9,22.8 C3.4,23.9 2.9,25 2.6,26.2 C3.9,26.5 5.1,26.7 6.3,26.8 Z M9.3,9.1 C8.6,9.1 7.8,9.2 7,9.3 C7.1,10.1 7.2,10.8 7.4,11.6 C8,10.7 8.6,9.9 9.3,9.1 L9.3,9.1 Z M3.3,27.6 C4.2,28.9 5.3,30.1 6.5,31.2 C6.4,30.1 6.3,29.1 6.3,28.1 C5.3,28 4.3,27.9 3.3,27.6 Z M12.1,1 C10.7,1.5 9.4,2.1 8.2,2.9 C9.1,3 10,3.2 10.9,3.5 C11.2,2.6 11.6,1.8 12.1,1 L12.1,1 Z M17.8,0 C17.1,0 16.4,0 15.8,0.1 C16.7,0.8 17.6,1.5 18.5,2.3 L19.2,2.9 L18.5,3.6 C17.9,4.1 17.4,4.7 16.8,5.4 L16.5,5.7 C16.9,5.7 17.3,5.6 17.8,5.6 C24.5,5.6 29.9,11 29.9,17.7 C29.9,24.4 24.5,29.8 17.8,29.8 C15.5,29.8 13.3,29.1 11.5,28 C10.6,28.1 9.7,28.2 8.8,28.2 L7.5,28.2 C7.5,29.6 7.7,31 7.9,32.5 C10.7,34.4 14.1,35.5 17.8,35.5 C27.6,35.5 35.5,27.6 35.5,17.8 C35.5,7.9 27.6,0 17.8,0 Z" id="Shape"></path>
                <path d="M15.5,4.2 C15.9,3.8 16.2,3.4 16.6,3 C15.8,2.3 14.9,1.6 14,1.1 C13.4,2.1 12.9,3 12.5,4.1 C13.3,4.4 14.1,4.7 14.8,5.1 C15.2,4.5 15.4,4.3 15.5,4.2 L15.5,4.2 Z M1.9,10.6 C2.4,11.8 3,13 3.6,14 L6,12.5 C5.8,11.6 5.6,10.6 5.4,9.6 C4.2,9.9 3,10.2 1.9,10.6 Z M0.7,18.7 C1.6,19.4 2.5,20.1 3.4,20.7 C3.8,19.9 4.3,19.2 4.9,18.4 C4.3,17.7 3.7,17 3.2,16.3 C2.3,17.1 1.5,17.9 0.7,18.7 L0.7,18.7 Z M7.8,24.6 C7.7,25.3 7.7,26.1 7.6,26.9 L9.8,26.9 C9.1,26.3 8.4,25.5 7.8,24.6 L7.8,24.6 Z M10.3,5 C9.2,4.7 8.1,4.5 6.9,4.3 C6.8,5.5 6.8,6.6 6.9,7.8 C7.8,7.7 8.7,7.6 9.6,7.6 C9.8,6.7 10,5.9 10.3,5 Z M11.9,5.5 C11.7,6.2 11.5,6.8 11.3,7.5 C12.1,7 12.9,6.6 13.8,6.3 C13.2,6 12.5,5.8 11.9,5.5 Z M2.8,22 C2,21.5 1.2,21 0.4,20.4 C0.6,21.9 1,23.3 1.6,24.7 C2,23.7 2.3,22.9 2.8,22 Z M5.4,5.1 C4.3,6.1 3.4,7.3 2.7,8.6 C3.5,8.4 4.5,8.2 5.4,8 C5.3,7 5.3,6.1 5.4,5.1 Z M6.1,14.3 C5.6,14.6 5,15 4.5,15.4 L5.7,16.9 C5.7,16 5.9,15.2 6.1,14.3 L6.1,14.3 Z M4.7,21.5 C5.3,21.8 6,22.2 6.6,22.4 C6.2,21.5 6,20.6 5.8,19.7 C5.4,20.3 5,20.9 4.7,21.5 L4.7,21.5 Z M2.3,15 C1.8,14.2 1.4,13.4 1,12.6 C0.6,14 0.3,15.4 0.3,16.9 C0.9,16.2 1.6,15.6 2.3,15 L2.3,15 Z" id="Shape"></path>
            </g>
        </g>
    </g>
</svg>

<?xml version="1.0" encoding="UTF-8" standalone="no"?>
<svg
   width="300"
   height="90"
   viewBox="0 0 300 90"
   version="1.1"
   id="svg904"
   sodipodi:docname="anaconda.svg"
   inkscape:version="1.1.1 (3bf5ae0d25, 2021-09-20)"
   xmlns:inkscape="http://www.inkscape.org/namespaces/inkscape"
   xmlns:sodipodi="http://sodipodi.sourceforge.net/DTD/sodipodi-0.dtd"
   xmlns="http://www.w3.org/2000/svg"
   xmlns:svg="http://www.w3.org/2000/svg"
   xmlns:rdf="http://www.w3.org/1999/02/22-rdf-syntax-ns#"
   xmlns:cc="http://creativecommons.org/ns#"
   xmlns:dc="http://purl.org/dc/elements/1.1/">
  <sodipodi:namedview
     id="namedview906"
     pagecolor="#ffffff"
     bordercolor="#666666"
     borderopacity="1.0"
     inkscape:pageshadow="2"
     inkscape:pageopacity="0.0"
     inkscape:pagecheckerboard="0"
     showgrid="false"
     inkscape:zoom="1.9488743"
     inkscape:cx="108.78075"
     inkscape:cy="-10.518893"
     inkscape:window-width="1866"
     inkscape:window-height="1016"
     inkscape:window-x="54"
     inkscape:window-y="27"
     inkscape:window-maximized="1"
     inkscape:current-layer="svg904" />
  <!-- Generator: Sketch 46.2 (44496) - http://www.bohemiancoding.com/sketch -->
  <title
     id="title882">logo-horizontal-large-white</title>
  <desc
     id="desc884">Created with Sketch.</desc>
  <defs
     id="defs886" />
  <g
     id="Page-1"
     stroke="none"
     stroke-width="1"
     fill="none"
     fill-rule="evenodd"
     transform="matrix(1.431093,0,0,1.431093,0.80855475,19.598099)">
    <g
       id="logo-horizontal-large-white">
      <path
         d="M 53.8,7.95 C 53.7,7.75 53.6,7.65 53.3,7.65 H 53 c -0.3,0 -0.4,0.1 -0.5,0.3 l -8.9,19.3 c -0.2,0.4 0.1,0.7 0.5,0.7 h 2.5 c 0.5,0 0.7,-0.3 0.8,-0.6 l 1.4,-3.1 h 8.6 l 1.4,3.1 c 0.2,0.4 0.4,0.6 0.8,0.6 h 2.5 c 0.4,0 0.7,-0.4 0.5,-0.7 z m -3.6,13.2 2.8,-6.3 h 0.1 l 2.9,6.3 z M 81.1,7.95 h -2.6 c -0.3,0 -0.5,0.3 -0.5,0.5 v 11.9 L 66,7.65 h -0.7 c -0.3,0 -0.5,0.2 -0.5,0.5 v 19.3 c 0,0.3 0.3,0.5 0.5,0.5 h 2.6 c 0.3,0 0.5,-0.3 0.5,-0.5 v -12.3 l 12,13.2 h 0.7 c 0.3,0 0.5,-0.2 0.5,-0.5 V 8.45 c 0.1,-0.2 -0.2,-0.5 -0.5,-0.5 z m 12.9,0 c -0.1,-0.2 -0.2,-0.3 -0.5,-0.3 h -0.3 c -0.3,0 -0.4,0.1 -0.5,0.3 l -8.9,19.3 c -0.2,0.4 0.1,0.7 0.5,0.7 h 2.5 c 0.5,0 0.7,-0.3 0.8,-0.6 l 1.4,-3 h 8.6 l 1.4,3.1 c 0.2,0.4 0.4,0.6 0.8,0.6 h 2.5 c 0.4,0 0.7,-0.4 0.5,-0.7 z m -3.6,13.2 2.8,-6.3 h 0.1 l 2.9,6.3 z m 28.1,1.8 c -0.2,-0.2 -0.5,-0.2 -0.7,0 -1.2,1 -2.7,1.6 -4.4,1.6 -3.7,0 -6.4,-3 -6.4,-6.6 0,-3.6 2.7,-6.7 6.4,-6.7 1.6,0 3.2,0.6 4.4,1.7 0.2,0.2 0.5,0.2 0.7,0 l 1.7,-1.8 c 0.2,-0.2 0.2,-0.6 0,-0.8 -1.9,-1.7 -4,-2.7 -6.9,-2.7 -5.7,0 -10.3,4.6 -10.3,10.3 0,5.7 4.6,10.3 10.3,10.3 2.6,0 5,-0.9 7,-2.8 0.2,-0.2 0.3,-0.6 0,-0.8 z M 132,7.65 c -5.7,0 -10.3,4.6 -10.3,10.3 0,5.7 4.6,10.3 10.3,10.3 5.7,0 10.3,-4.6 10.3,-10.3 0,-5.7 -4.5,-10.3 -10.3,-10.3 z m 0,16.9 c -3.6,0 -6.6,-3 -6.6,-6.6 0,-3.6 3,-6.6 6.6,-6.6 3.6,0 6.6,3 6.6,6.6 0,3.7 -3,6.6 -6.6,6.6 z m 29.9,-16.6 h -2.6 c -0.3,0 -0.5,0.3 -0.5,0.5 v 11.9 L 146.7,7.65 H 146 c -0.3,0 -0.5,0.2 -0.5,0.5 v 19.3 c 0,0.3 0.3,0.5 0.5,0.5 h 2.6 c 0.3,0 0.5,-0.3 0.5,-0.5 v -12.3 l 12,13.2 h 0.7 c 0.3,0 0.5,-0.2 0.5,-0.5 V 8.45 c 0.1,-0.2 -0.1,-0.5 -0.4,-0.5 z m 11.5,0 h -6.8 c -0.3,0 -0.5,0.3 -0.5,0.5 v 19 c 0,0.3 0.2,0.5 0.5,0.5 h 6.8 c 5.5,0 10.1,-4.5 10.1,-10.1 -0.1,-5.4 -4.6,-9.9 -10.1,-9.9 z m -0.4,16.6 h -3.3 v -13.1 h 3.3 c 3.7,0 6.4,2.8 6.4,6.5 0.1,3.8 -2.7,6.6 -6.4,6.6 z m 29.6,2.7 -8.8,-19.3 c -0.1,-0.2 -0.2,-0.3 -0.5,-0.3 H 193 c -0.3,0 -0.4,0.1 -0.5,0.3 l -8.9,19.3 c -0.2,0.4 0.1,0.7 0.5,0.7 h 2.5 c 0.5,0 0.7,-0.3 0.8,-0.6 l 1.4,-3.1 h 8.6 l 1.4,3.1 c 0.2,0.4 0.4,0.6 0.8,0.6 h 2.5 c 0.4,0.1 0.7,-0.3 0.5,-0.7 z m -12.4,-6.1 2.8,-6.3 h 0.1 l 2.9,6.3 z"
         id="Shape"
         fill="#b1b1b1"
         fill-rule="nonzero" />
      <path
         d="m 206.9,25 c 0,-0.1 -0.1,-0.2 -0.2,-0.2 h -0.4 v 0.5 h 0.4 c 0.1,-0.1 0.2,-0.2 0.2,-0.3 z"
         id="path889" />
      <path
         d="m 206.5,26.6 c 0.8,0 1.4,-0.6 1.4,-1.4 0,-0.8 -0.6,-1.4 -1.4,-1.4 -0.8,0 -1.4,0.6 -1.4,1.4 0,0.8 0.7,1.4 1.4,1.4 z m -0.6,-2.1 c 0,0 0,-0.1 0,0 l 0.8,-0.1 c 0.3,0 0.6,0.2 0.6,0.6 0,0.3 -0.2,0.5 -0.4,0.5 0.1,0.2 0.2,0.4 0.2,0.5 0,0.1 0,0.1 -0.1,0.1 h -0.2 c 0,0 -0.1,0 -0.1,-0.1 l -0.2,-0.6 h -0.3 V 26 c 0,0 0,0.1 -0.1,0.1 H 206 c -0.1,0 -0.1,0 -0.1,-0.1 z"
         id="path891" />
      <path
         d="m 206,26.1 h 0.2 c 0.1,0 0.1,0 0.1,-0.1 v -0.5 h 0.3 l 0.2,0.6 c 0,0 0,0.1 0.1,0.1 h 0.2 c 0.1,0 0.1,-0.1 0.1,-0.1 -0.1,-0.2 -0.2,-0.3 -0.2,-0.5 0.1,-0.1 0.4,-0.2 0.4,-0.5 0,-0.4 -0.3,-0.6 -0.6,-0.6 H 206 c -0.1,0 -0.1,0 -0.1,0.1 l 0.1,1.5 c -0.1,0 -0.1,0 0,0 z m 0.2,-1.4 h 0.4 c 0.1,0 0.2,0.1 0.2,0.2 0,0.1 -0.1,0.2 -0.2,0.2 h -0.4 z"
         id="path893"
         fill="#3fae2a"
         fill-rule="nonzero" />
      <path
         d="m 206.5,27 c 0.9,0 1.7,-0.8 1.7,-1.7 0,-0.9 -0.8,-1.7 -1.7,-1.7 -0.9,0 -1.7,0.8 -1.7,1.7 0,0.9 0.8,1.7 1.7,1.7 z m 0,-3.1 c 0.8,0 1.4,0.6 1.4,1.4 0,0.8 -0.6,1.4 -1.4,1.4 -0.8,0 -1.4,-0.6 -1.4,-1.4 0,-0.8 0.7,-1.4 1.4,-1.4 z"
         id="path895"
         fill="#3fae2a"
         fill-rule="nonzero" />
      <g
         id="Group"
         fill-rule="nonzero"
         fill="#b1b1b1">
        <path
           d="m 6.3,26.8 c 0,-1 0.1,-1.9 0.2,-2.8 -0.9,-0.4 -1.7,-0.8 -2.6,-1.2 -0.5,1.1 -1,2.2 -1.3,3.4 1.3,0.3 2.5,0.5 3.7,0.6 z M 9.3,9.1 C 8.6,9.1 7.8,9.2 7,9.3 7.1,10.1 7.2,10.8 7.4,11.6 8,10.7 8.6,9.9 9.3,9.1 Z m -6,18.5 c 0.9,1.3 2,2.5 3.2,3.6 C 6.4,30.1 6.3,29.1 6.3,28.1 5.3,28 4.3,27.9 3.3,27.6 Z M 12.1,1 C 10.7,1.5 9.4,2.1 8.2,2.9 9.1,3 10,3.2 10.9,3.5 11.2,2.6 11.6,1.8 12.1,1 Z m 5.7,-1 c -0.7,0 -1.4,0 -2,0.1 0.9,0.7 1.8,1.4 2.7,2.2 l 0.7,0.6 -0.7,0.7 c -0.6,0.5 -1.1,1.1 -1.7,1.8 l -0.3,0.3 c 0.4,0 0.8,-0.1 1.3,-0.1 6.7,0 12.1,5.4 12.1,12.1 0,6.7 -5.4,12.1 -12.1,12.1 -2.3,0 -4.5,-0.7 -6.3,-1.8 -0.9,0.1 -1.8,0.2 -2.7,0.2 H 7.5 c 0,1.4 0.2,2.8 0.4,4.3 2.8,1.9 6.2,3 9.9,3 9.8,0 17.7,-7.9 17.7,-17.7 C 35.5,7.9 27.6,0 17.8,0 Z"
           id="path897" />
        <path
           d="M 15.5,4.2 C 15.9,3.8 16.2,3.4 16.6,3 15.8,2.3 14.9,1.6 14,1.1 c -0.6,1 -1.1,1.9 -1.5,3 0.8,0.3 1.6,0.6 2.3,1 0.4,-0.6 0.6,-0.8 0.7,-0.9 z M 1.9,10.6 C 2.4,11.8 3,13 3.6,14 L 6,12.5 C 5.8,11.6 5.6,10.6 5.4,9.6 4.2,9.9 3,10.2 1.9,10.6 Z m -1.2,8.1 c 0.9,0.7 1.8,1.4 2.7,2 C 3.8,19.9 4.3,19.2 4.9,18.4 4.3,17.7 3.7,17 3.2,16.3 2.3,17.1 1.5,17.9 0.7,18.7 Z m 7.1,5.9 C 7.7,25.3 7.7,26.1 7.6,26.9 H 9.8 C 9.1,26.3 8.4,25.5 7.8,24.6 Z M 10.3,5 C 9.2,4.7 8.1,4.5 6.9,4.3 6.8,5.5 6.8,6.6 6.9,7.8 7.8,7.7 8.7,7.6 9.6,7.6 9.8,6.7 10,5.9 10.3,5 Z m 1.6,0.5 C 11.7,6.2 11.5,6.8 11.3,7.5 12.1,7 12.9,6.6 13.8,6.3 13.2,6 12.5,5.8 11.9,5.5 Z M 2.8,22 C 2,21.5 1.2,21 0.4,20.4 0.6,21.9 1,23.3 1.6,24.7 2,23.7 2.3,22.9 2.8,22 Z M 5.4,5.1 C 4.3,6.1 3.4,7.3 2.7,8.6 3.5,8.4 4.5,8.2 5.4,8 5.3,7 5.3,6.1 5.4,5.1 Z m 0.7,9.2 C 5.6,14.6 5,15 4.5,15.4 l 1.2,1.5 C 5.7,16 5.9,15.2 6.1,14.3 Z M 4.7,21.5 C 5.3,21.8 6,22.2 6.6,22.4 6.2,21.5 6,20.6 5.8,19.7 5.4,20.3 5,20.9 4.7,21.5 Z M 2.3,15 C 1.8,14.2 1.4,13.4 1,12.6 0.6,14 0.3,15.4 0.3,16.9 0.9,16.2 1.6,15.6 2.3,15 Z"
           id="path899" />
      </g>
    </g>
  </g>
  <metadata
     id="metadata988">
    <rdf:RDF>
      <cc:Work
         rdf:about="">
        <dc:title>logo-horizontal-large-white</dc:title>
      </cc:Work>
    </rdf:RDF>
  </metadata>
</svg>
